svg/line/sanitizer-alt.svg

<svg xmlns="http://www.w3.org/2000/svg" data-name="Layer 1" viewBox="0 0 24 24"><path d="M14,15H12a1,1,0,0,0,0,2h2a1,1,0,0,0,0-2Zm2-7V5a1,1,0,0,0-1-1H14V3h1a1,1,0,0,0,0-2H10.23584A4.593,4.593,0,0,0,6.10547,3.55273a1.00012,1.00012,0,0,0,1.78906.89454A2.60342,2.60342,0,0,1,10.23584,3H12V4H11a1,1,0,0,0-1,1V8a3.00328,3.00328,0,0,0-3,3v9a3.00328,3.00328,0,0,0,3,3h6a3.00328,3.00328,0,0,0,3-3V11A3.00328,3.00328,0,0,0,16,8ZM12,6h2V8H12Zm5,14a1.0013,1.0013,0,0,1-1,1H10a1.0013,1.0013,0,0,1-1-1V11a1.0013,1.0013,0,0,1,1-1h6a1.0013,1.0013,0,0,1,1,1Z"/></svg>

<svg xmlns="http://www.w3.org/2000/svg" data-name="Layer 1" viewBox="0 0 24 24"><path d="M14 15h-2a1 1 0 0 0 0 2h2a1 1 0 0 0 0-2Zm2-7V5a1 1 0 0 0-1-1h-1V3h1a1 1 0 0 0 0-2h-4.764a4.593 4.593 0 0 0-4.13 2.553 1 1 0 0 0 1.789.894A2.603 2.603 0 0 1 10.235 3H12v1h-1a1 1 0 0 0-1 1v3a3.003 3.003 0 0 0-3 3v9a3.003 3.003 0 0 0 3 3h6a3.003 3.003 0 0 0 3-3v-9a3.003 3.003 0 0 0-3-3Zm-4-2h2v2h-2Zm5 14a1.001 1.001 0 0 1-1 1h-6a1.001 1.001 0 0 1-1-1v-9a1.001 1.001 0 0 1 1-1h6a1.001 1.001 0 0 1 1 1Z"/></svg>
